X: 9
T: Il est de bonne heure n\'e / L'homme arm\'e
N: Derived from Jap3009-Il_est_de_bonne_heure_ne__Lhomme_arme.krn
C: Jean Japart
%%abc-version 2.0
%%abcx-abcm2ps-target-version 5.9.1 (29 Sep 2008)
%%abc-creator hum2abc beta
%%abcx-conversion-date 2019/02/16 20:40:05
%%abc-edited-by Jesse Rodin
%%abc-edited-by Chris Gage 09-11-2013
%%abcx-initial-encoding-date 2013/10/12/
%%humdrum-veritas 4159855245
%%humdrum-veritas-data 3440465470
%%linebreak <none>
%%barnumbers 0
L: 1/4
M: 2/1
Q: 1/2=120
%%staves [1 2 3 4]
V: 1 clef=treble
V: 2 clef=treble-8
V: 3 clef=treble-8
V: 4 clef=bass
K: F
[V:1] G4G4 | 
[V:2] d4e4 | 
[V:3] z8 | 
[V:4] G,4G,4 | 
[V:1] A4A4 | 
[V:2] f2d3cA2 | 
[V:3] z8 | 
[V:4] F,4F,4 | 
[V:1] B4B4 | 
[V:2] G2B4AG | 
[V:3] G4G4 | 
[V:4] G,4G,4 | 
[V:1] A4z4 | 
[V:2] F4f4 | 
[V:3] A4A4 | 
[V:4] D,8 | 
[V:1] G4G4 | 
[V:2] d4e4 | 
[V:3] B4B4 | 
[V:4] (3:2:2G,8G,4 | 
[V:1] A4A4 | 
[V:2] f8 | 
[V:3] A4z4 | 
[V:4] (3:2:2F,8F,4 | 
[V:1] B4B4 | 
[V:2] d4z2d2- | 
[V:3] G4G4 | 
[V:4] (3:2:2G,8G,4 | 
[V:1] A8 | 
[V:2] def3ga2- | 
[V:3] A4A4 | 
[V:4] D,8 | 
[V:1] z8 | 
[V:2] a2gfgfed | 
[V:3] B4B4 | 
[V:4] z4G,4 | 
[V:1] z8 | 
[V:2] c2f4e2 | 
[V:3] A8 | 
[V:4] A,6G,2 | 
[V:1] c4c4 | 
[V:2] f2edc4 | 
[V:3] z8 | 
[V:4] F,4E,4 | 
[V:1] B4G4 | 
[V:2] d4z4 | 
[V:3] z8 | 
[V:4] D,2G,4F,E, | 
[V:1] A8 | 
[V:2] z8 | 
[V:3] c4c4 | 
[V:4] F,2G,4^F,2 | 
[V:1] G8 | 
[V:2] d4e2g2- | 
[V:3] B4G4 | 
[V:4] G,8 | 
[V:1] z8 | 
[V:2] g2^fe^f4 | 
[V:3] A4A4 | 
[V:4] z8 | 
[V:1] z8 | 
[V:2] g4z2G2- | 
[V:3] G8 | 
[V:4] z8 | 
[V:1] G4G4 | 
[V:2] G2A2B4 | 
[V:3] z8 | 
[V:4] (3:2:2G,,8G,,4 | 
[V:1] A8 | 
[V:2] c4A4- | 
[V:3] z8 | 
[V:4] (3:2:2C,8C,4 | 
[V:1] B8 | 
[V:2] A2G2G4- | 
[V:3] G4G4 | 
[V:4] B,,8 | 
[V:1] c8 | 
[V:2] G2^FE^F4 | 
[V:3] A8 | 
[V:4] A,,8 | 
[V:1] B3AF2G2- | 
[V:2] G4z4 | 
[V:3] B8 | 
[V:4] G,,4z4 | 
[V:1] GFA3GE2 | 
[V:2] z8 | 
[V:3] c4c4 | 
[V:4] z8 | 
[V:1] D2G4^F2 | 
[V:2] z8 | 
[V:3] B4A4 | 
[V:4] z4D,2D,2 | 
[V:1] G4z4 | 
[V:2] z8 | 
[V:3] G3AB2A2- | 
[V:4] G,,4D,2D,2 | 
[V:1] z8 | 
[V:2] z8 | 
[V:3] ADA3GG2- | 
[V:4] D,2C,4B,,2 | 
[V:1] z8 | 
[V:2] c4B4 | 
[V:3] G2^F2G4 | 
[V:4] A,,4G,,4 | 
[V:1] G4G4 | 
[V:2] _e8 | 
[V:3] z8 | 
[V:4] z8 | 
[V:1] A4c4- | 
[V:2] d4c4 | 
[V:3] z8 | 
[V:4] z8 | 
[V:1] c2=BA=B4 | 
[V:2] d8 | 
[V:3] G4G4 | 
[V:4] z8 | 
[V:1] c3BG2A2- | 
[V:2] c8 | 
[V:3] A4c4- | 
[V:4] z8 | 
[V:1] AGFED4 | 
[V:2] z4g4 | 
[V:3] c4=B4 | 
[V:4] z4G,4 | 
[V:1] z2C4B,A, | 
[V:2] e4f4 | 
[V:3] c8 | 
[V:4] A,4F,4 | 
[V:1] G,2D2E2F2 | 
[V:2] d4c2d2 | 
[V:3] B4A4 | 
[V:4] G,4z2D,2 | 
[V:1] G2B3AA2- | 
[V:2] B3cdef2 | 
[V:3] G6F2 | 
[V:4] E,2G,3F,D,2 | 
[V:1] AGG4^F2 | 
[V:2] e2d4d2 | 
[V:3] G2B2A4 | 
[V:4] E,2G,2D,4 | 
[V:1] [M:3/1]G12 | 
[V:2] [M:3/1]B6c2d4 | 
[V:3] [M:3/1]G12- | 
[V:4] [M:3/1]G,,8G,,4 | 
[V:1] [M:3/1]z12 | 
[V:2] e6d2c2BA | 
[V:3] G12 | 
[V:4] C,8C,4 | 
[V:1] G8G4 | 
[V:2] G8E4 | 
[V:3] z12 | 
[V:4] B,,8C,4- | 
[V:1] A8A4 | 
[V:2] E4^F8 | 
[V:3] z12 | 
[V:4] C,4A,,8 | 
[V:1] B8B4 | 
[V:2] G4d6e2 | 
[V:3] [M:3/1]G8G4 | 
[V:4] G,,8z4 | 
[V:1] A8z4 | 
[V:2] f6e2f4 | 
[V:3] A8A4 | 
[V:4] D,8D,4 | 
[V:1] G8G4 | 
[V:2] d8d4 | 
[V:3] B8B4 | 
[V:4] G,,8z4 | 
[V:1] A8A4 | 
[V:2] d8z4 | 
[V:3] A8z4 | 
[V:4] D,8D,4 | 
[V:1] B8B4 | 
[V:2] d8e4 | 
[V:3] G8G4 | 
[V:4] G,,8z4 | 
[V:1] A12 | 
[V:2] f6g2a4 | 
[V:3] A8A4 | 
[V:4] D,6E,2F,4 | 
[V:1] z4z4G4 | 
[V:2] g6f2d4 | 
[V:3] B8B4 | 
[V:4] G,8G,4 | 
[V:1] A4c6B2 | 
[V:2] f6e2c4 | 
[V:3] A8A4 | 
[V:4] F,8F,4 | 
[V:1] A2G2A2G2F2E2 | 
[V:2] f6g2a4 | 
[V:3] c8c4 | 
[V:4] F,8F,4 | 
[V:1] D6E2F4 | 
[V:2] g6f2d4 | 
[V:3] B8A4 | 
[V:4] G,8F,4 | 
[V:1] G8^F4 | 
[V:2] c4d8 | 
[V:3] G4A8 | 
[V:4] E,4D,8 | 
[V:1] G12 |]  
[V:2] d12 |]  
[V:3] G12 |]  
[V:4] G,,12 |]  



